X: 3022
T: Sherriff Muir
N: aka Kafoozalum, London Bridge, Old Mrs. Huddledee, Katie Bairdie, ...
%R: air, strathspey, hornpipe
B: Niel Gow & Sons "Complete Repository" v.3 p.2 #2
Z: 2021 John Chambers <jc:trillian.mit.edu>
M: C
L: 1/8
Q: "Slowish"
K: A
% - - - - - - - - - -
V: 1 staves=2
|:\
{A}e2-ed ~c>de2 | ~B>cdc B>cd2 | {Ac}e3d ~c>de2 | A>Bc>A TB2A2 :| cA (3ABA cAc2 | dB (3BcB dBd2 |
cA (3ABA cAc2 | A>Bc>A TB2A2 || cA (3ABA cAc2 | dB (3BcB dBd2 | cA (3ABA cAc2 | A>Bc>A TB2A2 |]
% - - - - - - - - - -
V: 2 clef=bass middle=d
[|\
c2a2 c2a2 | B2g2 B2g2 |c2a2 c2a2 | c2A2 e2A2 :| A2a2 A2a2 | B2g2 B2g2 |
c2a2 c2a2 | c2A2 e2A2 || A2a2 A2a2 | B2g2 B2g2 | c2a2 c2a2 | c2A2 e2A2 |]


